static/images/product/api/api4.svg

<svg height="143" viewBox="0 0 162 143" width="162" xmlns="http://www.w3.org/2000/svg" xmlns:xlink="http://www.w3.org/1999/xlink"><linearGradient id="a" x1="0%" x2="149.460671%" y1="0%" y2="71.875%"><stop offset="0" stop-color="#00eaf8"/><stop offset="1" stop-color="#6d42ef"/></linearGradient><path d="m598.189189 112.845019v-41.4502373l-35.471199-20.5181083-34.907179 20.5030507v41.5804499l19.36079 12.801465c1.568283 1.036957 1.998052 3.147479.959917 4.713983-1.038134 1.566504-3.151053 1.995786-4.719335.958829l-22.412183-14.819064v-49.1273628l41.69174-24.4880242 40.664948 23.5224024 35.622309-21.0501856c1.058488-.6254893 2.370092-.629877 3.432701-.0114835l38.889478 22.6320401c1.051449.6118991 1.698824 1.7404258 1.698824 2.9614502v45.6291134c0 1.163666-.588417 2.247592-1.562061 2.87748l-21.476618 13.894065c-1.581387 1.023061-3.688638.564124-4.706677-1.025064-1.018039-1.589189-.561355-3.706836 1.020032-4.729897l19.914557-12.883506v-41.7893851l-35.470969-20.6426119-35.718264 21.106888v40.855129l18.457295 12.29846c1.585379 1.05637 2.019834 3.206402.970382 4.802231-1.049452 1.59583-3.185406 2.033148-4.770785.976778l-19.250219-12.826801-18.445501 11.861067c-1.581397 1.016891-3.688662.560722-4.706707-1.018882-1.018046-1.579603-.561359-3.684478 1.020039-4.701369l19.649917-12.635546c.084264-.091208.172686-.177027.264768-.257354zm39 45.150265v-41.823723l-19.362935-12.898422c-1.567498-1.044172-1.995671-3.167283-.956352-4.7421012 1.039319-1.5748177 3.152562-2.0049906 4.72006-.9608179l20.886486 13.9133201c.951491.633825 1.523552 1.704488 1.523552 2.851459v45.617442c0 1.212579-.638852 2.334572-1.679253 2.949212l-38.299459 22.626251c-1.058495.625329-2.370108.629716-3.432724.011481l-38.889729-22.626251c-1.051456-.611743-1.698835-1.739981-1.698835-2.960693v-45.617442c0-1.163368.588421-2.247017 1.562071-2.876744l21.476757-13.8905112c1.581397-1.0227994 3.688662-.5639799 4.706707 1.0248023 1.018046 1.5887819.561359 3.7058869-1.020039 4.7286869l-19.914685 12.880211v41.778695l35.471199 20.637332z" fill="url(#a)" transform="translate(-521 -43)"/></svg>

<?xml version="1.0" encoding="UTF-8"?>
<svg width="162px" height="143px" viewBox="0 0 162 143" version="1.1" xmlns="http://www.w3.org/2000/svg" xmlns:xlink="http://www.w3.org/1999/xlink">
    <!-- Generator: sketchtool 46.2 (44496) - http://www.bohemiancoding.com/sketch -->
    <title>4E7AA3B8-7914-49D8-823E-C2CAC63FBA7F</title>
    <desc>Created with sketchtool.</desc>
    <defs>
        <linearGradient x1="0%" y1="0%" x2="149.460671%" y2="71.875%" id="linearGradient-1">
            <stop stop-color="#00EAF8" offset="0%"></stop>
            <stop stop-color="#6D42EF" offset="100%"></stop>
        </linearGradient>
    </defs>
    <g id="Page-1" stroke="none" stroke-width="1" fill="none" fill-rule="evenodd">
        <g id="Rakam-API-Screen-10/10/2017-Custom" transform="translate(-747.000000, -1051.000000)" fill-rule="nonzero" fill="url(#linearGradient-1)">
            <g id="Analytics" transform="translate(49.000000, 784.000000)">
                <g id="txt" transform="translate(177.000000, 224.000000)">
                    <path d="M598.189189,112.845019 L598.189189,71.3947817 L562.71799,50.8766734 L527.810811,71.3797241 L527.810811,112.960174 L547.171601,125.761639 C548.739884,126.798596 549.169653,128.909118 548.131518,130.475622 C547.093384,132.042126 544.980465,132.471408 543.412183,131.434451 L521,116.615387 L521,67.4880242 L562.69174,43 L603.356688,66.5224024 L638.978997,45.4722168 C640.037485,44.8467275 641.349089,44.8423398 642.411698,45.4607333 L681.301176,68.0927734 C682.352625,68.7046725 683,69.8331992 683,71.0542236 L683,116.683337 C683,117.847003 682.411583,118.930929 681.437939,119.560817 L659.961321,133.454882 C658.379934,134.477943 656.272683,134.019006 655.254644,132.429818 C654.236605,130.840629 654.693289,128.722982 656.274676,127.699921 L676.189233,114.816415 L676.189233,73.0270299 L640.718264,52.384418 L605,73.491306 L605,114.346435 L623.457295,126.644895 C625.042674,127.701265 625.477129,129.851297 624.427677,131.447126 C623.378225,133.042956 621.242271,133.480274 619.656892,132.423904 L600.406673,119.597103 L581.961172,131.45817 C580.379775,132.475061 578.27251,132.018892 577.254465,130.439288 C576.236419,128.859685 576.693106,126.75481 578.274504,125.737919 L597.924421,113.102373 C598.008685,113.011165 598.097107,112.925346 598.189189,112.845019 Z M637.189189,157.995284 L637.189189,116.171561 L617.826254,103.273139 C616.258756,102.228967 615.830583,100.105856 616.869902,98.5310378 C617.909221,96.9562201 620.022464,96.5260472 621.589962,97.5702199 L642.476448,111.48354 C643.427939,112.117365 644,113.188028 644,114.334999 L644,159.952441 C644,161.16502 643.361148,162.287013 642.320747,162.901653 L604.021288,185.527904 C602.962793,186.153233 601.65118,186.15762 600.588564,185.539385 L561.698835,162.913134 C560.647379,162.301391 560,161.173153 560,159.952441 L560,114.334999 C560,113.171631 560.588421,112.087982 561.562071,111.458255 L583.038828,97.5677438 C584.620225,96.5449444 586.72749,97.0037639 587.745535,98.5925461 C588.763581,100.181328 588.306894,102.298433 586.725496,103.321233 L566.810811,116.201444 L566.810811,157.980139 L602.28201,178.617471 L637.189189,157.995284 Z" id="Combined-Shape"></path>
                </g>
            </g>
        </g>
    </g>
</svg>
